assets/Elephant/Flat/elephant_flat.svg

<svg width="32" height="32" viewBox="0 0 32 32" fill="none" xmlns="http://www.w3.org/2000/svg">
<path d="M14 24.563C14 23.3163 13.02 22.3052 11.75 22.3052L19 16.7V27.7926C19 28.4601 18.43 29 17.75 29H15.25C14.57 29 14 28.4601 14 27.7926V24.563Z" fill="#636363"/>
<path d="M22.51 22.25L22 22H29V28.06C29 28.58 28.58 29 28.06 29H24.94C24.42 29 24 28.58 24 28.06V24.67C24 23.64 23.43 22.71 22.51 22.25Z" fill="#636363"/>
<path d="M19.35 6C25.23 6 30 10.723 29.99 16.5673V27.7796C29.99 28.4543 29.44 29 28.76 29H26.2339C25.5539 29 25.0039 28.4543 25.0039 27.7796V24.5151C25.0039 23.255 23.9739 22 22.7039 22H17.5C16.49 22 15.79 22.9573 15.32 23.7908C15.2356 23.9407 15.1457 24.1025 15.0509 24.273C14.0231 26.1221 12.4234 29 11.05 29H8.31C8.28361 29 8.26 28.9972 8.23771 28.9946C8.21777 28.9923 8.19889 28.9901 8.18 28.9901C7.35 28.9107 6.96 27.9284 7.45 27.2636L9.16 24.9318C9.88 23.9594 10.07 22.6795 9.59 21.5781C8.84797 19.8763 7.16017 19.1422 5 18.8549V22.5C5 22.7783 5.07227 22.8945 5.08948 22.9152C5.09336 22.9199 5.1032 22.9318 5.13954 22.9472C5.18248 22.9654 5.29076 23 5.5 23C6.32843 23 7 23.6716 7 24.5C7 25.3285 6.32843 26 5.5 26C4.38888 26 3.43171 25.6126 2.7841 24.8349C2.17679 24.1055 2 23.2217 2 22.5V10.9909C2 8.23253 4.25 6 7.03 6H19.35Z" fill="#9B9B9B"/>
<path d="M5.5 12.5C5.77614 12.5 6 12.7239 6 13V14C6 14.2761 5.77614 14.5 5.5 14.5C5.22386 14.5 5 14.2761 5 14V13C5 12.7239 5.22386 12.5 5.5 12.5Z" fill="#1C1C1C"/>
<path d="M10 6C14.4741 6 18.2026 9.18153 18.9773 13.3758C19.1323 14.2261 18.4737 15 17.6022 15H11.3945C10.6295 15 10 14.3885 10 13.6242V6Z" fill="#D3D3D3"/>
<path d="M3.46002 19.7C3.46002 20.2 3.86002 20.6 4.36002 20.6C6.36002 20.6 7.98002 19 7.99002 17H6.19002C6.19002 18.01 5.37002 18.8 4.36002 18.8C3.86002 18.8 3.46002 19.2 3.46002 19.7Z" fill="#D3D3D3"/>
</svg>

<svg xmlns="http://www.w3.org/2000/svg" width="32" height="32" fill="none"><path fill="#636363" d="M14 24.563c0-1.247-.98-2.258-2.25-2.258L19 16.7v11.093C19 28.46 18.43 29 17.75 29h-2.5c-.68 0-1.25-.54-1.25-1.207v-3.23ZM22.51 22.25 22 22h7v6.06c0 .52-.42.94-.94.94h-3.12c-.52 0-.94-.42-.94-.94v-3.39c0-1.03-.57-1.96-1.49-2.42Z"/><path fill="#9B9B9B" d="M19.35 6C25.23 6 30 10.723 29.99 16.567V27.78c0 .674-.55 1.22-1.23 1.22h-2.526c-.68 0-1.23-.546-1.23-1.22v-3.265c0-1.26-1.03-2.515-2.3-2.515H17.5c-1.01 0-1.71.957-2.18 1.79l-.27.483c-1.027 1.85-2.627 4.727-4 4.727H8.31c-.026 0-.05-.003-.072-.005-.02-.003-.04-.005-.058-.005-.83-.08-1.22-1.062-.73-1.726l1.71-2.332c.72-.973.91-2.252.43-3.354-.742-1.702-2.43-2.436-4.59-2.723V22.5c0 .278.072.395.09.415.003.005.013.017.05.032A.944.944 0 0 0 5.5 23a1.5 1.5 0 0 1 0 3c-1.111 0-2.068-.387-2.716-1.165C2.177 24.105 2 23.222 2 22.5V10.99C2 8.234 4.25 6 7.03 6h12.32Z"/><path fill="#1C1C1C" d="M5.5 12.5a.5.5 0 0 1 .5.5v1a.5.5 0 0 1-1 0v-1a.5.5 0 0 1 .5-.5Z"/><path fill="#D3D3D3" d="M10 6c4.474 0 8.203 3.182 8.977 7.376A1.383 1.383 0 0 1 17.602 15h-6.207A1.386 1.386 0 0 1 10 13.624V6ZM3.46 19.7c0 .5.4.9.9.9 2 0 3.62-1.6 3.63-3.6h-1.8c0 1.01-.82 1.8-1.83 1.8-.5 0-.9.4-.9.9Z"/></svg>
